images/50650791.svg

<?xml version="1.0" encoding="UTF-8"?>
<svg xmlns="http://www.w3.org/2000/svg" xmlns:xlink="http://www.w3.org/1999/xlink" width="300pt" height="300pt" viewBox="0 0 300 300" version="1.1">
<defs>
<g>
<symbol overflow="visible" id="glyph0-0">
<path style="stroke:none;" d="M 0.453125 1.59375 L 0.453125 -6.34375 L 4.953125 -6.34375 L 4.953125 1.59375 Z M 0.953125 1.09375 L 4.453125 1.09375 L 4.453125 -5.84375 L 0.953125 -5.84375 Z M 0.953125 1.09375 "/>
</symbol>
<symbol overflow="visible" id="glyph0-1">
<path style="stroke:none;" d="M 3.546875 -5.953125 C 2.898438 -5.953125 2.382812 -5.710938 2 -5.234375 C 1.625 -4.753906 1.4375 -4.101562 1.4375 -3.28125 C 1.4375 -2.445312 1.625 -1.789062 2 -1.3125 C 2.382812 -0.832031 2.898438 -0.59375 3.546875 -0.59375 C 4.191406 -0.59375 4.703125 -0.832031 5.078125 -1.3125 C 5.453125 -1.789062 5.640625 -2.445312 5.640625 -3.28125 C 5.640625 -4.101562 5.453125 -4.753906 5.078125 -5.234375 C 4.703125 -5.710938 4.191406 -5.953125 3.546875 -5.953125 Z M 3.546875 -6.6875 C 4.460938 -6.6875 5.195312 -6.375 5.75 -5.75 C 6.300781 -5.132812 6.578125 -4.3125 6.578125 -3.28125 C 6.578125 -2.238281 6.300781 -1.410156 5.75 -0.796875 C 5.195312 -0.179688 4.460938 0.125 3.546875 0.125 C 2.617188 0.125 1.878906 -0.179688 1.328125 -0.796875 C 0.773438 -1.410156 0.5 -2.238281 0.5 -3.28125 C 0.5 -4.3125 0.773438 -5.132812 1.328125 -5.75 C 1.878906 -6.375 2.617188 -6.6875 3.546875 -6.6875 Z M 3.546875 -6.6875 "/>
</symbol>
<symbol overflow="visible" id="glyph0-2">
<path style="stroke:none;" d="M 0.890625 -6.5625 L 2.078125 -6.5625 L 4.984375 -1.078125 L 4.984375 -6.5625 L 5.84375 -6.5625 L 5.84375 0 L 4.65625 0 L 1.75 -5.484375 L 1.75 0 L 0.890625 0 Z M 0.890625 -6.5625 "/>
</symbol>
<symbol overflow="visible" id="glyph0-3">
<path style="stroke:none;" d="M 0.890625 -6.5625 L 1.765625 -6.5625 L 1.765625 -3.875 L 5 -3.875 L 5 -6.5625 L 5.890625 -6.5625 L 5.890625 0 L 5 0 L 5 -3.125 L 1.765625 -3.125 L 1.765625 0 L 0.890625 0 Z M 0.890625 -6.5625 "/>
</symbol>
<symbol overflow="visible" id="glyph1-0">
<path style="stroke:none;" d="M 0.40625 1.421875 L 0.40625 -5.640625 L 4.40625 -5.640625 L 4.40625 1.421875 Z M 0.84375 0.96875 L 3.953125 0.96875 L 3.953125 -5.1875 L 0.84375 -5.1875 Z M 0.84375 0.96875 "/>
</symbol>
<symbol overflow="visible" id="glyph1-1">
<path style="stroke:none;" d="M 3.6875 -5.015625 L 3.6875 -2.84375 L 5.859375 -2.84375 L 5.859375 -2.171875 L 3.6875 -2.171875 L 3.6875 0 L 3.03125 0 L 3.03125 -2.171875 L 0.84375 -2.171875 L 0.84375 -2.84375 L 3.03125 -2.84375 L 3.03125 -5.015625 Z M 3.6875 -5.015625 "/>
</symbol>
</g>
</defs>
<g id="surface26197">
<rect x="0" y="0" width="300" height="300" style="fill:rgb(100%,100%,100%);fill-opacity:1;stroke:none;"/>
<path style="fill:none;stroke-width:1.2;stroke-linecap:butt;stroke-linejoin:miter;stroke:rgb(100%,0%,0%);stroke-opacity:1;stroke-miterlimit:10;" d="M 198.667969 116.269531 L 202.15625 126.640625 "/>
<path style="fill:none;stroke-width:1.2;stroke-linecap:butt;stroke-linejoin:miter;stroke:rgb(0%,0%,0%);stroke-opacity:1;stroke-miterlimit:10;" d="M 202.15625 126.640625 L 205.648438 137.007812 "/>
<path style="fill:none;stroke-width:1.2;stroke-linecap:butt;stroke-linejoin:miter;stroke:rgb(100%,0%,0%);stroke-opacity:1;stroke-miterlimit:10;" d="M 203.546875 114.628906 L 207.039062 124.996094 "/>
<path style="fill:none;stroke-width:1.2;stroke-linecap:butt;stroke-linejoin:miter;stroke:rgb(0%,0%,0%);stroke-opacity:1;stroke-miterlimit:10;" d="M 207.039062 124.996094 L 210.527344 135.367188 "/>
<path style=" stroke:none;fill-rule:nonzero;fill:rgb(100%,100%,100%);fill-opacity:1;" d="M 193.105469 109.949219 L 201.105469 109.949219 L 201.105469 120.949219 L 193.105469 120.949219 Z M 193.105469 109.949219 "/>
<g style="fill:rgb(100%,0%,0%);fill-opacity:1;">
  <use xlink:href="#glyph0-1" x="193.105469" y="118.612305"/>
</g>
<path style="fill:none;stroke-width:1.2;stroke-linecap:butt;stroke-linejoin:miter;stroke:rgb(0%,0%,0%);stroke-opacity:1;stroke-miterlimit:10;" d="M 208.085938 136.1875 L 218.8125 138.351562 "/>
<path style="fill:none;stroke-width:1.2;stroke-linecap:butt;stroke-linejoin:miter;stroke:rgb(0%,0%,100%);stroke-opacity:1;stroke-miterlimit:10;" d="M 218.8125 138.351562 L 229.539062 140.511719 "/>
<path style="fill:none;stroke-width:1.2;stroke-linecap:butt;stroke-linejoin:miter;stroke:rgb(0%,0%,0%);stroke-opacity:1;stroke-miterlimit:10;" d="M 208.085938 136.1875 L 193.617188 152.605469 "/>
<path style="fill:none;stroke-width:1.2;stroke-linecap:butt;stroke-linejoin:miter;stroke:rgb(0%,0%,100%);stroke-opacity:1;stroke-miterlimit:10;" d="M 229.539062 140.511719 L 236.773438 132.304688 "/>
<path style="fill:none;stroke-width:1.2;stroke-linecap:butt;stroke-linejoin:miter;stroke:rgb(0%,0%,0%);stroke-opacity:1;stroke-miterlimit:10;" d="M 236.773438 132.304688 L 244.011719 124.097656 "/>
<path style=" stroke:none;fill-rule:nonzero;fill:rgb(100%,100%,100%);fill-opacity:1;" d="M 222.539062 135.011719 L 236.539062 135.011719 L 236.539062 146.011719 L 222.539062 146.011719 Z M 222.539062 135.011719 "/>
<g style="fill:rgb(0%,0%,100%);fill-opacity:1;">
  <use xlink:href="#glyph0-2" x="222.539062" y="143.674805"/>
  <use xlink:href="#glyph0-3" x="229.516602" y="143.674805"/>
</g>
<path style="fill:none;stroke-width:1.2;stroke-linecap:butt;stroke-linejoin:miter;stroke:rgb(0%,0%,0%);stroke-opacity:1;stroke-miterlimit:10;" d="M 244.011719 124.097656 L 248.335938 102.644531 "/>
<path style="fill:none;stroke-width:1.2;stroke-linecap:butt;stroke-linejoin:miter;stroke:rgb(0%,0%,0%);stroke-opacity:1;stroke-miterlimit:10;" d="M 264.75 117.117188 L 244.011719 124.097656 "/>
<path style="fill:none;stroke-width:1.2;stroke-linecap:butt;stroke-linejoin:miter;stroke:rgb(0%,0%,0%);stroke-opacity:1;stroke-miterlimit:10;" d="M 248.335938 102.644531 L 264.75 117.117188 "/>
<path style="fill:none;stroke-width:1.2;stroke-linecap:butt;stroke-linejoin:miter;stroke:rgb(0%,0%,0%);stroke-opacity:1;stroke-miterlimit:10;" d="M 193.617188 152.605469 L 172.164062 148.277344 "/>
<path style="fill:none;stroke-width:1.2;stroke-linecap:butt;stroke-linejoin:miter;stroke:rgb(0%,0%,0%);stroke-opacity:1;stroke-miterlimit:10;" d="M 190.453125 157.21875 L 173.292969 153.757812 "/>
<path style="fill:none;stroke-width:1.2;stroke-linecap:butt;stroke-linejoin:miter;stroke:rgb(0%,0%,0%);stroke-opacity:1;stroke-miterlimit:10;" d="M 200.597656 173.34375 L 193.617188 152.605469 "/>
<path style="fill:none;stroke-width:1.2;stroke-linecap:butt;stroke-linejoin:miter;stroke:rgb(0%,0%,0%);stroke-opacity:1;stroke-miterlimit:10;" d="M 172.164062 148.277344 L 157.695312 164.695312 "/>
<path style="fill:none;stroke-width:1.2;stroke-linecap:butt;stroke-linejoin:miter;stroke:rgb(0%,0%,0%);stroke-opacity:1;stroke-miterlimit:10;" d="M 157.695312 164.695312 L 146.96875 162.53125 "/>
<path style="fill:none;stroke-width:1.2;stroke-linecap:butt;stroke-linejoin:miter;stroke:rgb(0%,0%,100%);stroke-opacity:1;stroke-miterlimit:10;" d="M 146.96875 162.53125 L 136.242188 160.371094 "/>
<path style="fill:none;stroke-width:1.2;stroke-linecap:butt;stroke-linejoin:miter;stroke:rgb(0%,0%,0%);stroke-opacity:1;stroke-miterlimit:10;" d="M 157.695312 164.695312 L 164.675781 185.433594 "/>
<path style="fill:none;stroke-width:1.2;stroke-linecap:butt;stroke-linejoin:miter;stroke:rgb(0%,0%,0%);stroke-opacity:1;stroke-miterlimit:10;" d="M 163.273438 165.125 L 168.855469 181.71875 "/>
<path style="fill:none;stroke-width:1.2;stroke-linecap:butt;stroke-linejoin:miter;stroke:rgb(0%,0%,100%);stroke-opacity:1;stroke-miterlimit:10;" d="M 136.242188 160.371094 L 132.753906 150 "/>
<path style="fill:none;stroke-width:1.2;stroke-linecap:butt;stroke-linejoin:miter;stroke:rgb(0%,0%,0%);stroke-opacity:1;stroke-miterlimit:10;" d="M 132.753906 150 L 129.261719 139.628906 "/>
<path style=" stroke:none;fill-rule:nonzero;fill:rgb(100%,100%,100%);fill-opacity:1;" d="M 129.242188 154.871094 L 143.242188 154.871094 L 143.242188 165.871094 L 129.242188 165.871094 Z M 129.242188 154.871094 "/>
<g style="fill:rgb(0%,0%,100%);fill-opacity:1;">
  <use xlink:href="#glyph0-2" x="129.242188" y="163.53418"/>
  <use xlink:href="#glyph0-3" x="136.219727" y="163.53418"/>
</g>
<path style="fill:none;stroke-width:1.2;stroke-linecap:butt;stroke-linejoin:miter;stroke:rgb(0%,0%,0%);stroke-opacity:1;stroke-miterlimit:10;" d="M 129.261719 139.628906 L 136.496094 131.421875 "/>
<path style="fill:none;stroke-width:1.2;stroke-linecap:butt;stroke-linejoin:miter;stroke:rgb(0%,0%,100%);stroke-opacity:1;stroke-miterlimit:10;" d="M 136.496094 131.421875 L 143.734375 123.214844 "/>
<path style="fill:none;stroke-width:1.2;stroke-linecap:butt;stroke-linejoin:miter;stroke:rgb(0%,0%,0%);stroke-opacity:1;stroke-miterlimit:10;" d="M 126.847656 134.582031 L 132.636719 128.015625 "/>
<path style="fill:none;stroke-width:1.2;stroke-linecap:butt;stroke-linejoin:miter;stroke:rgb(0%,0%,100%);stroke-opacity:1;stroke-miterlimit:10;" d="M 132.636719 128.015625 L 138.421875 121.453125 "/>
<path style="fill:none;stroke-width:1.2;stroke-linecap:butt;stroke-linejoin:miter;stroke:rgb(0%,0%,0%);stroke-opacity:1;stroke-miterlimit:10;" d="M 107.8125 135.304688 L 129.261719 139.628906 "/>
<path style="fill:none;stroke-width:1.2;stroke-linecap:butt;stroke-linejoin:miter;stroke:rgb(0%,0%,100%);stroke-opacity:1;stroke-miterlimit:10;" d="M 143.734375 123.214844 L 140.242188 112.84375 "/>
<path style="fill:none;stroke-width:1.2;stroke-linecap:butt;stroke-linejoin:miter;stroke:rgb(0%,0%,0%);stroke-opacity:1;stroke-miterlimit:10;" d="M 140.242188 112.84375 L 136.753906 102.476562 "/>
<path style=" stroke:none;fill-rule:nonzero;fill:rgb(100%,100%,100%);fill-opacity:1;" d="M 133.734375 115.714844 L 154.734375 115.714844 L 154.734375 130.714844 L 133.734375 130.714844 Z M 133.734375 115.714844 "/>
<g style="fill:rgb(0%,0%,100%);fill-opacity:1;">
  <use xlink:href="#glyph0-2" x="133.734375" y="127.816406"/>
  <use xlink:href="#glyph0-3" x="140.711914" y="127.816406"/>
</g>
<g style="fill:rgb(0%,0%,100%);fill-opacity:1;">
  <use xlink:href="#glyph1-1" x="147.726562" y="122.933594"/>
</g>
<path style="fill:none;stroke-width:1.2;stroke-linecap:butt;stroke-linejoin:miter;stroke:rgb(0%,0%,0%);stroke-opacity:1;stroke-miterlimit:10;" d="M 136.753906 102.476562 L 126.027344 100.3125 "/>
<path style="fill:none;stroke-width:1.2;stroke-linecap:butt;stroke-linejoin:miter;stroke:rgb(0%,0%,100%);stroke-opacity:1;stroke-miterlimit:10;" d="M 126.027344 100.3125 L 115.300781 98.152344 "/>
<path style="fill:none;stroke-width:1.2;stroke-linecap:butt;stroke-linejoin:miter;stroke:rgb(0%,0%,0%);stroke-opacity:1;stroke-miterlimit:10;" d="M 133.589844 107.089844 L 125.007812 105.359375 "/>
<path style="fill:none;stroke-width:1.2;stroke-linecap:butt;stroke-linejoin:miter;stroke:rgb(0%,0%,100%);stroke-opacity:1;stroke-miterlimit:10;" d="M 125.007812 105.359375 L 116.429688 103.628906 "/>
<path style="fill:none;stroke-width:1.2;stroke-linecap:butt;stroke-linejoin:miter;stroke:rgb(0%,0%,100%);stroke-opacity:1;stroke-miterlimit:10;" d="M 115.300781 98.152344 L 100.832031 114.566406 "/>
<path style=" stroke:none;fill-rule:nonzero;fill:rgb(100%,100%,100%);fill-opacity:1;" d="M 112.300781 92.652344 L 119.300781 92.652344 L 119.300781 103.652344 L 112.300781 103.652344 Z M 112.300781 92.652344 "/>
<g style="fill:rgb(0%,0%,100%);fill-opacity:1;">
  <use xlink:href="#glyph0-2" x="112.300781" y="101.31543"/>
</g>
<path style="fill:none;stroke-width:1.2;stroke-linecap:butt;stroke-linejoin:miter;stroke:rgb(0%,0%,100%);stroke-opacity:1;stroke-miterlimit:10;" d="M 100.832031 114.566406 L 104.320312 124.9375 "/>
<path style="fill:none;stroke-width:1.2;stroke-linecap:butt;stroke-linejoin:miter;stroke:rgb(0%,0%,0%);stroke-opacity:1;stroke-miterlimit:10;" d="M 104.320312 124.9375 L 107.8125 135.304688 "/>
<path style="fill:none;stroke-width:1.2;stroke-linecap:butt;stroke-linejoin:miter;stroke:rgb(0%,0%,0%);stroke-opacity:1;stroke-miterlimit:10;" d="M 78.949219 114.796875 L 89.890625 114.679688 "/>
<path style="fill:none;stroke-width:1.2;stroke-linecap:butt;stroke-linejoin:miter;stroke:rgb(0%,0%,100%);stroke-opacity:1;stroke-miterlimit:10;" d="M 89.890625 114.679688 L 100.832031 114.566406 "/>
<path style=" stroke:none;fill-rule:nonzero;fill:rgb(100%,100%,100%);fill-opacity:1;" d="M 97.832031 109.066406 L 104.832031 109.066406 L 104.832031 120.066406 L 97.832031 120.066406 Z M 97.832031 109.066406 "/>
<g style="fill:rgb(0%,0%,100%);fill-opacity:1;">
  <use xlink:href="#glyph0-2" x="97.832031" y="117.729492"/>
</g>
<path style="fill:none;stroke-width:1.2;stroke-linecap:butt;stroke-linejoin:miter;stroke:rgb(0%,0%,0%);stroke-opacity:1;stroke-miterlimit:10;" d="M 107.8125 135.304688 L 90.242188 148.355469 "/>
<path style="fill:none;stroke-width:1.2;stroke-linecap:butt;stroke-linejoin:miter;stroke:rgb(0%,0%,0%);stroke-opacity:1;stroke-miterlimit:10;" d="M 102.984375 132.476562 L 88.929688 142.914062 "/>
<path style="fill:none;stroke-width:1.2;stroke-linecap:butt;stroke-linejoin:miter;stroke:rgb(0%,0%,0%);stroke-opacity:1;stroke-miterlimit:10;" d="M 90.242188 148.355469 L 90.472656 170.234375 "/>
<path style="fill:none;stroke-width:1.2;stroke-linecap:butt;stroke-linejoin:miter;stroke:rgb(0%,0%,0%);stroke-opacity:1;stroke-miterlimit:10;" d="M 90.242188 148.355469 L 72.40625 135.679688 "/>
<path style="fill:none;stroke-width:1.2;stroke-linecap:butt;stroke-linejoin:miter;stroke:rgb(0%,0%,0%);stroke-opacity:1;stroke-miterlimit:10;" d="M 72.40625 135.679688 L 78.949219 114.796875 "/>
<path style="fill:none;stroke-width:1.2;stroke-linecap:butt;stroke-linejoin:miter;stroke:rgb(0%,0%,0%);stroke-opacity:1;stroke-miterlimit:10;" d="M 77.972656 135.128906 L 83.207031 118.421875 "/>
<path style="fill:none;stroke-width:1.2;stroke-linecap:butt;stroke-linejoin:miter;stroke:rgb(0%,0%,0%);stroke-opacity:1;stroke-miterlimit:10;" d="M 72.40625 135.679688 L 51.664062 142.660156 "/>
<path style="fill:none;stroke-width:1.2;stroke-linecap:butt;stroke-linejoin:miter;stroke:rgb(0%,0%,0%);stroke-opacity:1;stroke-miterlimit:10;" d="M 53.367188 140.726562 L 45.160156 133.492188 "/>
<path style="fill:none;stroke-width:1.2;stroke-linecap:butt;stroke-linejoin:miter;stroke:rgb(100%,0%,0%);stroke-opacity:1;stroke-miterlimit:10;" d="M 45.160156 133.492188 L 36.953125 126.257812 "/>
<path style="fill:none;stroke-width:1.2;stroke-linecap:butt;stroke-linejoin:miter;stroke:rgb(0%,0%,0%);stroke-opacity:1;stroke-miterlimit:10;" d="M 49.960938 144.589844 L 41.753906 137.355469 "/>
<path style="fill:none;stroke-width:1.2;stroke-linecap:butt;stroke-linejoin:miter;stroke:rgb(100%,0%,0%);stroke-opacity:1;stroke-miterlimit:10;" d="M 41.753906 137.355469 L 33.546875 130.117188 "/>
<path style=" stroke:none;fill-rule:nonzero;fill:rgb(100%,100%,100%);fill-opacity:1;" d="M 27.25 122.6875 L 35.25 122.6875 L 35.25 133.6875 L 27.25 133.6875 Z M 27.25 122.6875 "/>
<g style="fill:rgb(100%,0%,0%);fill-opacity:1;">
  <use xlink:href="#glyph0-1" x="27.25" y="131.350586"/>
</g>
<path style="fill:none;stroke-width:1.2;stroke-linecap:butt;stroke-linejoin:miter;stroke:rgb(0%,0%,0%);stroke-opacity:1;stroke-miterlimit:10;" d="M 164.675781 185.433594 L 186.125 189.757812 "/>
<path style="fill:none;stroke-width:1.2;stroke-linecap:butt;stroke-linejoin:miter;stroke:rgb(0%,0%,0%);stroke-opacity:1;stroke-miterlimit:10;" d="M 164.675781 185.433594 L 150.203125 201.847656 "/>
<path style="fill:none;stroke-width:1.2;stroke-linecap:butt;stroke-linejoin:miter;stroke:rgb(0%,0%,0%);stroke-opacity:1;stroke-miterlimit:10;" d="M 186.125 189.757812 L 200.597656 173.34375 "/>
<path style="fill:none;stroke-width:1.2;stroke-linecap:butt;stroke-linejoin:miter;stroke:rgb(0%,0%,0%);stroke-opacity:1;stroke-miterlimit:10;" d="M 183.710938 184.710938 L 195.289062 171.578125 "/>
</g>
</svg>

<svg xmlns="http://www.w3.org/2000/svg" xmlns:xlink="http://www.w3.org/1999/xlink" width="300pt" height="300pt" viewBox="0 0 300 300"><defs><symbol overflow="visible"><path d="M.453 1.594v-7.938h4.5v7.938zm.5-.5h3.5v-6.938h-3.5zm0 0"/></symbol><symbol overflow="visible" id="a"><path d="M3.547-5.953c-.65 0-1.164.242-1.547.72-.375.48-.563 1.13-.563 1.952 0 .835.188 1.49.563 1.967.383.48.898.72 1.547.72.644 0 1.156-.24 1.53-.72.376-.476.564-1.132.564-1.968 0-.822-.187-1.474-.562-1.954-.375-.477-.887-.72-1.53-.72zm0-.734c.914 0 1.648.312 2.203.937.55.617.828 1.438.828 2.47 0 1.042-.277 1.87-.828 2.483-.555.617-1.29.922-2.203.922-.93 0-1.668-.305-2.22-.922C.774-1.41.5-2.237.5-3.28c0-1.033.273-1.853.828-2.47.55-.625 1.29-.938 2.22-.938zm0 0"/></symbol><symbol overflow="visible" id="b"><path d="M.89-6.563H2.08l2.906 5.485v-5.484h.86V0H4.656L1.75-5.484V0H.89zm0 0"/></symbol><symbol overflow="visible" id="c"><path d="M.89-6.563h.876v2.688H5v-2.688h.89V0H5v-3.125H1.766V0H.89zm0 0"/></symbol><symbol overflow="visible"><path d="M.406 1.422V-5.64h4V1.42zM.844.97h3.11v-6.157H.843zm0 0"/></symbol><symbol overflow="visible" id="d"><path d="M3.688-5.016v2.172h2.17v.672H3.69V0H3.03v-2.172H.845v-.672H3.03v-2.172zm0 0"/></symbol></defs><g><path fill="#fff" d="M0 0h300v300H0z"/><path d="M198.668 116.27l3.488 10.37" stroke-width="1.2" stroke="#f00" stroke-miterlimit="10" fill="none"/><path d="M202.156 126.64l3.492 10.368" stroke-width="1.2" stroke="#000" stroke-miterlimit="10" fill="none"/><path d="M203.547 114.63l3.492 10.366" stroke-width="1.2" stroke="#f00" stroke-miterlimit="10" fill="none"/><path d="M207.04 124.996l3.487 10.37" stroke-width="1.2" stroke="#000" stroke-miterlimit="10" fill="none"/><path d="M193.105 109.95h8v11h-8zm0 0" fill="#fff"/><use xlink:href="#a" x="193.105" y="118.612" fill="#f00"/><path d="M208.086 136.188l10.726 2.164" stroke-width="1.2" stroke="#000" stroke-miterlimit="10" fill="none"/><path d="M218.813 138.352l10.726 2.16" stroke-width="1.2" stroke="#00f" stroke-miterlimit="10" fill="none"/><path d="M208.086 136.188l-14.47 16.417" stroke-width="1.2" stroke="#000" stroke-miterlimit="10" fill="none"/><path d="M229.54 140.512l7.233-8.207" stroke-width="1.2" stroke="#00f" stroke-miterlimit="10" fill="none"/><path d="M236.773 132.305l7.24-8.207" stroke-width="1.2" stroke="#000" stroke-miterlimit="10" fill="none"/><path d="M222.54 135.012h14v11h-14zm0 0" fill="#fff"/><g fill="#00f"><use xlink:href="#b" x="222.539" y="143.675"/><use xlink:href="#c" x="229.517" y="143.675"/></g><path d="M244.012 124.098l4.324-21.453M264.75 117.117l-20.738 6.98M248.336 102.645l16.414 14.472M193.617 152.605l-21.453-4.328M190.453 157.22l-17.16-3.462M200.598 173.344l-6.98-20.74M172.164 148.277l-14.47 16.418M157.695 164.695l-10.726-2.164" stroke-width="1.2" stroke="#000" stroke-miterlimit="10" fill="none"/><path d="M146.97 162.53l-10.728-2.16" stroke-width="1.2" stroke="#00f" stroke-miterlimit="10" fill="none"/><path d="M157.695 164.695l6.98 20.74M163.273 165.125l5.582 16.594" stroke-width="1.2" stroke="#000" stroke-miterlimit="10" fill="none"/><path d="M136.242 160.37L132.754 150" stroke-width="1.2" stroke="#00f" stroke-miterlimit="10" fill="none"/><path d="M132.754 150l-3.492-10.37" stroke-width="1.2" stroke="#000" stroke-miterlimit="10" fill="none"/><path d="M129.242 154.87h14v11h-14zm0 0" fill="#fff"/><g fill="#00f"><use xlink:href="#b" x="129.242" y="163.534"/><use xlink:href="#c" x="136.22" y="163.534"/></g><path d="M129.262 139.63l7.234-8.208" stroke-width="1.2" stroke="#000" stroke-miterlimit="10" fill="none"/><path d="M136.496 131.422l7.238-8.207" stroke-width="1.2" stroke="#00f" stroke-miterlimit="10" fill="none"/><path d="M126.848 134.582l5.79-6.566" stroke-width="1.2" stroke="#000" stroke-miterlimit="10" fill="none"/><path d="M132.637 128.016l5.785-6.563" stroke-width="1.2" stroke="#00f" stroke-miterlimit="10" fill="none"/><path d="M107.813 135.305l21.45 4.324" stroke-width="1.2" stroke="#000" stroke-miterlimit="10" fill="none"/><path d="M143.734 123.215l-3.492-10.37" stroke-width="1.2" stroke="#00f" stroke-miterlimit="10" fill="none"/><path d="M140.242 112.844l-3.488-10.367" stroke-width="1.2" stroke="#000" stroke-miterlimit="10" fill="none"/><path d="M133.734 115.715h21v15h-21zm0 0" fill="#fff"/><g fill="#00f"><use xlink:href="#b" x="133.734" y="127.816"/><use xlink:href="#c" x="140.712" y="127.816"/></g><use xlink:href="#d" x="147.727" y="122.934" fill="#00f"/><path d="M136.754 102.477l-10.727-2.165" stroke-width="1.2" stroke="#000" stroke-miterlimit="10" fill="none"/><path d="M126.027 100.313l-10.726-2.16" stroke-width="1.2" stroke="#00f" stroke-miterlimit="10" fill="none"/><path d="M133.59 107.09l-8.582-1.73" stroke-width="1.2" stroke="#000" stroke-miterlimit="10" fill="none"/><path d="M125.008 105.36l-8.578-1.73M115.3 98.152l-14.468 16.414" stroke-width="1.2" stroke="#00f" stroke-miterlimit="10" fill="none"/><path d="M112.3 92.652h7v11h-7zm0 0" fill="#fff"/><use xlink:href="#b" x="112.301" y="101.315" fill="#00f"/><path d="M100.832 114.566l3.488 10.37" stroke-width="1.2" stroke="#00f" stroke-miterlimit="10" fill="none"/><path d="M104.32 124.938l3.493 10.367M78.95 114.797l10.94-.117" stroke-width="1.2" stroke="#000" stroke-miterlimit="10" fill="none"/><path d="M89.89 114.68l10.942-.114" stroke-width="1.2" stroke="#00f" stroke-miterlimit="10" fill="none"/><path d="M97.832 109.066h7v11h-7zm0 0" fill="#fff"/><use xlink:href="#b" x="97.832" y="117.729" fill="#00f"/><path d="M107.813 135.305l-17.57 13.05M102.984 132.477L88.93 142.914M90.242 148.355l.23 21.88M90.242 148.355L72.406 135.68M72.406 135.68l6.543-20.883M77.973 135.13l5.234-16.708M72.406 135.68l-20.742 6.98M53.367 140.727l-8.207-7.235" stroke-width="1.2" stroke="#000" stroke-miterlimit="10" fill="none"/><path d="M45.16 133.492l-8.207-7.234" stroke-width="1.2" stroke="#f00" stroke-miterlimit="10" fill="none"/><path d="M49.96 144.59l-8.206-7.235" stroke-width="1.2" stroke="#000" stroke-miterlimit="10" fill="none"/><path d="M41.754 137.355l-8.207-7.238" stroke-width="1.2" stroke="#f00" stroke-miterlimit="10" fill="none"/><path d="M27.25 122.688h8v11h-8zm0 0" fill="#fff"/><use xlink:href="#a" x="27.25" y="131.351" fill="#f00"/><path d="M164.676 185.434l21.45 4.324M164.676 185.434l-14.473 16.414M186.125 189.758l14.473-16.414M183.71 184.71l11.58-13.132" stroke-width="1.2" stroke="#000" stroke-miterlimit="10" fill="none"/></g></svg>
